X:1
T:애국가
T:애　국　가
T:조선민주주의인민공화국 국가
T:작곡　　김원균
T:작사　　박세영
T:공개령역
T:공개령역
T:공개령역
C:작곡　　김원균
Z:작사　　박세영
Z:공개령역
%%score 1 { ( 2 4 ) | ( 3 5 ) }
L:1/8
Q:1/4=67
M:4/4
K:C
V:1 treble nm="목소리"
V:2 treble nm="피아노"
V:4 treble 
V:3 bass 
V:5 bass 
V:1
"^약간 느리고 장엄하게" G2 |: c3 c c2 B A | G3 F E2 G2 | A3 A A2 B c | d3 G G2 G2 | e3 e (f f) e d | %6
w: 아|침 은 빛 나 라|이 강 산 은|금 에 자 원 도|가 득 한 삼|천 리 아 름 다 운|
w: |두 산 기 상 을|다 안 고 근|로 의 정 신 은|깃 들 어 진|리 로 뭉 * 쳐 진|
 d3 A A2 A2 | B3 B B B A B | c6 G2 | e3 e f2 e d | d3 A A2 A2 | d3 d e2 d c | B3 A G2 (EF) | %13
w: 내 조 국 반|만 년 오 랜 력 사|에 찬|란 한 문 화 로|자 라 난 슬|기 론 인 민 의|이 영 광 몸 *|
w: 억 센 뜻 온|세 계 앞 서 나 가|리 솟|는 힘 노 도 도|내 밀 어 인|민 의 뜻 으 로|선 나 라 한 *|
 G3 G (G G) A B | c3 d e2 A2 | (f3 e) (ed)(AB) | c6 G2 | e3 e f2 e d | d3 A A2 A2 | d3 d e2 d c | %20
w: 과 맘 다 * 바 쳐|이 조 선 길|이 * 받 * 드 *|세 찬|란 한 문 화 로|자 라 난 슬|기 론 인 민 의|
w: 없 이 부 강 하 는|이 조 선 길|이 * 빛 * 내 *|세 솟|는 힘 노 도 도|내 밀 어 인|민 의 뜻 으 로|
 B3 A G2 (EF) | G3 G (G G) A B | c3 d e2 A2 | (f3 e) (ed)(AB) |1 c6 G2 :|2 c6 z2 |] %26
w: 이 영 광 몸 *|과 맘 다 * 바 쳐|이 조 선 길|이 * 받 * 드 *|세 백||
w: 선 나 라 한 *|없 이 부 강 하 는|이 조 선 길|이 * 빛 * 내 *||세|
V:2
 G2 |: [Ec]3 [Ec] [Ec]2 [GB]A | G3 F E2 [EG]2 | [FA]3 [FA] [FA]2 [GB][Ac] | [Bd]3 G G2 G2 | %5
 [Ge]3 [Ge] [Af][Af][Ge][Fd] | [Fd]3 [FA] [FA]2 [^FA]2 | [GB]3 [GB] [GB][GB][FA][GB] | [Ec]6 G2 | %9
 [Be]3 [Be] [Bf]2 [Be][Bd] | [Ad]3 [FA] [FA]2 [FA]2 | [Ad]3 [Ad] [Ae]2 [Ad][Ac] | %12
 [GB]3 [FA] [EG]2 [CE]F | G3 G GGA[GB] | [Ec]3 [Gd] [ce]2 A2 | [Af]3 [Ae] [Ge][Gd][FA][FB] | %16
 [Ec]6 G2 | [^Ge]3 [Ge] [Af]2 [Ae][=Gd] | [Fd]3 [FA] [FA]2 [FA]2 | [^Fd]3 [Fd] [Ae]2 [Ad][Ac] | %20
 B3 A G2 EF | G3 G GGA[GB] | [Ec]3 [Gd] [ce]2 A2 | [Af]3 [ce] [Be][Bd]A[FB] |1 [CEc]6 G2 :|2 %25
 [CEc]6 z2 |] %26
V:3
 z2 |: [C,,C,]2 [C,,C,]2 [C,,C,]2 [D,,D,]2 | [E,,E,]3 [F,,F,] [G,,G,]4 | %3
 [F,,F,]2 [F,,F,]2 [F,,F,][E,,E,][D,,D,][C,,C,] | %4
 [B,,,B,,]2 [D,,D,]2 [G,,G,][F,,F,][E,,E,][D,,D,] | [C,,C,]2 [_B,,,_B,,]2 [A,,,A,,]4 | %6
 [D,,D,]2 [D,,D,]2 [D,,D,]4 | G,,4- G,,[F,,F,][E,,E,][D,,D,] | %8
 [C,,C,]2 [E,,E,][G,,G,] [C,,C,]2 [G,,G,][F,,F,] | [E,,E,]2 [B,,,B,,]2 [D,,D,]2 [E,,E,]2 | %10
 [F,,F,]2 [D,,D,]2 A,,2 [A,,A,][G,,G,] | [^F,,^F,]2 [D,,D,]2 [E,,E,][=F,,=F,] [^F,,^F,]2 | %12
 [G,,G,]G,,A,,B,, C,3 z | z2 [G,,,G,,]3 [F,,F,] [F,,E,][D,,D,] | %14
 [C,,C,]2 [B,,,B,,][_B,,,_B,,] [A,,,A,,]2 F,,E,, | F,,2 [D,,D,]2 [G,,G,]2 G,,2 | %16
 [C,,C,]G,,A,,B,, C,[E,,E,][G,,G,][F,,F,] | [E,,E,]2 [B,,,B,,]2 [D,,D,][^D,,^D,] [E,,E,]2 | %18
 [F,,F,]2 [D,,D,]2 [F,,F,][D,,D,][A,,A,][G,,G,] | [^F,,^F,]2 [D,,D,]2 [E,,E,][=F,,=F,] [^F,,^F,]2 | %20
 [G,,G,]F,,A,,B,, C,4 | z [G,,,G,,] [B,,,B,,][D,,D,] [G,,G,][F,,F,][E,,E,][D,,D,] | %22
 [C,,C,]G,,[C,,C,][B,,,B,,] [_B,,,_B,,]2 A,,G,, | [F,,F,]2 [D,,D,]2 [G,,G,]2 G,,2 |1 %24
 [C,,C,][C,,C,][G,,G,][E,,E,] [C,,C,]2 z2 :|2 [C,,C,][C,,C,][G,,G,][E,,E,] [C,,C,]2 z2 |] %26
V:4
 x2 |: [CE]4 C2 [B,D]2 | [CE]2 [CE]2 C4 | C4 [CF]4 | [B,D]2 [B,D]2 [B,D]4 | E4 F2 E2 | %6
 D2 [DF]2 [A,D]4 | x2 [B,D]4 [B,D]2 | C2 [CE]2 [CE]4 | EE/E/ E2 F2 E2 | [DF][DF]/[DF]/ [DF]D D4 | %11
 [D^F][DF]/[DF]/ [DF]6 | [B,D]2 [B,D]2 C3 x | x2 D6- | DE/E/ ED [CE]4 | %15
 [CF][CF]/[CF]/ [CF]3 B,/[B,G]/ D2- | D[EG]/[EG]/ [EG][EG] [EG][EG]EE | EE/E/ E2 C4- | %18
 CD/D/ DD D4 | DD/D/ D2 D4- | D[B,D]/[B,D]/ [B,D][DF] [CE]3 x | [B,D]3 [B,D] [B,D]4 | %22
 C[CE]/[CE]/ [CE][DF] [CE]3 x | [CF][CF]/[CF]/ [CF]3 [B,D]/[B,D]/ [A,D][B,D] |1 x8 :|2 x8 |] %26
V:5
 x2 |: x8 | x8 | x8 | x8 | C4 C4 | x8 | x8 | x8 | B,B,/B,/ B,6 | x8 | x8 | x8 | x8 | x8 | x8 | x8 | %17
 x8 | x8 | x8 | x8 | x8 | x8 | x8 |1 x8 :|2 x8 |] %26

